src/assets/images/icon_grid_high_pressure_gas_spring.svg

<?xml version="1.0" encoding="UTF-8"?>
<svg id="icons" xmlns="http://www.w3.org/2000/svg" viewBox="0 0 500 500">
  <defs>
    <style>
      .cls-1 {
        fill: none;
        stroke: #000;
        stroke-linecap: round;
        stroke-linejoin: round;
        stroke-width: .88px;
      }
    </style>
  </defs>
  <path class="cls-1" d="M132.06,281.49c2.71.2,5.43-.27,8.14.18.5.08,1.19-.2,1.1-1.06-.05-.51,0-1.02,0-1.54v-59.35h-9.67v59.35c0,4.18-.01,3.96-4.17,4.23-5.36.35-10.7-.42-16.05.13-1.67.17-3.3-.39-4.37-1.75-1.01-1.29-2.24-1.55-3.77-1.54-7.62.05-15.25.23-22.86-.03-12.89-.43-22.42-6.33-27.91-18.2-3.54-7.66-3.15-15.61.13-23.01,3.16-7.11,8.84-12.31,16.13-15.44,3.71-1.6,7.6-2.31,11.64-2.72,6.46-.67,12.91-.3,19.35-.29,2.72,0,4.96-.75,6.77-2.54,1.26-1.25,2.62-1.5,4.22-1.5,12.46,0,24.91,0,37.37,0,45.5,0,91.01.04,136.51-.05,5.36-.01,6.11,2.05,7.48,5.77,1.02,2.78,1.13,5.74,1,8.57-.19,3.99.48,7.9.37,11.88-.19,6.96-.05,13.92-.05,20.88"/>
  <path class="cls-1" d="M287.48,217.96c-55.1,0-110.21-.01-165.31.02-4.39,0-8.8-.3-13.19.18-.65.07-1.35.12-1.98-.21"/>
  <path class="cls-1" d="M398.27,263.91c1.12,3.63,4.01,5.71,6.81,7.93,5.78,4.58,12.53,5.83,19.57,5.19,10.1-.91,20.17-7.03,23.97-18.39,3.18-9.52.71-17.83-5.51-25.27-4.36-5.21-10.2-8.45-16.71-9.31-9.35-1.24-17.11,1.59-24.82,8.2-.63.54-1.22.85-2.23,2.39-.47.72-.64,1.52-1.2,2.44h-12.62c-29.9,0-59.79,0-89.69,0-1.84,0-3.65.25-5.5.23-.89,0,0,0-1.98,0"/>
  <path class="cls-1" d="M288.14,219.72h-139.81"/>
  <path class="cls-1" d="M291.36,273.98c-.01,1.95.28,5.36-2,7.29-.46.39-1.57.44-2.1.44-46.9,0-93.79,0-140.69,0"/>
  <path class="cls-1" d="M79.96,236.43c-3.81.33-7.09,1.63-10.17,4.1-5.38,4.31-5.95,13.56-2.13,18.76,3.22,4.39,7.59,7.03,12.97,7.39,3.71.25,7.22-1,10.33-3.21,8.41-5.96,8.94-17.29,3.24-24.37-2.85-3.54-6.79-5.9-11.38-6.36-7.02-.7-14.16,3.15-17.27,7.65-3.3,4.77-4.25,9.65-3.61,15.37"/>
  <path class="cls-1" d="M398.2,263.41c-35.9,0-68.67.05-104.57.07-.36,0-.63.36-.88.64.83,1.55.54,3.22.41,4.83-.18,2.27-.22,4.54-.17,6.82.04,1.83-.58,3.46-1.35,5.05-1.01,2.09-3.04,2.85-5.04,2.8-6.23-.18-12.46-.09-18.69-.22-12.46-.26-24.92-.19-37.37-.07-5.87.06-11.73-.42-17.59-.06-7.04.43-14.07-.1-21.1-.05-12.46.1-24.91.02-37.37.03-2.2,0-4.4-.02-6.59,0-1.06,0-1.62.22-1.64-1.54-.17-17.59-.15-35.17,0-52.76.03-4.01.3-8.08-.34-12.09"/>
  <path class="cls-1" d="M270.77,228.73h-122.66"/>
  <path class="cls-1" d="M270.77,273.58h-122.44"/>
  <path class="cls-1" d="M387.72,239.29h-93.87"/>
  <path class="cls-1" d="M407.5,241.26c-4.31,4.55-4.57,12.8-.21,18.02,4.45,5.32,10.53,6.96,16.89,5.79,6.9-1.27,11.27-5.96,12.79-13.03.86-4-.54-7.51-2.48-10.75-5.14-8.57-16.38-10.78-24.36-4.86"/>
  <path class="cls-1" d="M398.27,265.01c-3.45.2-6.9-.03-10.33-.03-3.8,0-7.62-.14-11.43.02-2.2.09-4.4-.01-6.59.02-6.23.08-12.46.13-18.68.11-4.39-.01-8.81-.19-13.19-.01-4.7.19-9.38-.09-14.08.03-4.75.13-9.52-.14-14.29-.13-5.42.02-10.84-.01-16.27,0"/>
  <path class="cls-1" d="M422.45,262.37c3.94-.56,6.91-2.68,8.99-5.95,3.23-5.09,1.97-11.94-3.33-15.74-6.57-4.71-17.14-3.08-20.55,6.1-1.43,3.84-.63,7.58,2.14,10.75"/>
  <path class="cls-1" d="M119.31,228.73c-12.6,0-25.21.04-37.81-.03-3.13-.02-6.12.41-9.01,1.57"/>
  <path class="cls-1" d="M146.57,219.72h1.54v61.77"/>
  <path class="cls-1" d="M260,229.17v43.97"/>
  <path class="cls-1" d="M119.75,218.4c0,4.25,0,8.5,0,12.75,0,12.46-.01,24.91,0,37.37,0,4.25-.23,8.51.21,12.75"/>
  <path class="cls-1" d="M265.94,231.59c-.47.69-.2,1.47-.2,2.2-.02,10.48-.01,20.96-.02,31.44,0,1.98.09,3.97-.22,5.94"/>
  <path class="cls-1" d="M86.17,262.42c5.31-2.29,8.1-7.43,8.14-13.42.05-7.55-7.24-13.71-14.72-12.54"/>
  <path class="cls-1" d="M61.94,255.77c.96,6.29,4.58,10.58,10.12,13.4,3.39,1.72,7.05,1.9,10.77,1.78,2.42-.07,4.84-.01,7.25-.01,9.75,0,19.49,0,29.24,0"/>
  <path class="cls-1" d="M260.44,230.27c2.29-.15,4.34.32,6.41,1.47,1.99,1.11,2.84,2.49,2.83,4.69-.03,9.82-.08,19.64.03,29.46.03,2.56-.96,4.4-2.87,5.38-1.61.82-3.23,1.07-6.58,1.2"/>
  <path class="cls-1" d="M286.4,235.48c.02,1.01-.01,2.98-.01,3.8-.01,14,0,27.99,0,41.99"/>
  <path class="cls-1" d="M288.36,237.31c0,8.13-.01,16.27.02,24.4,0,.74-.38,1.6.42,2.2"/>
  <path class="cls-1" d="M68.75,232.2c-5.16,3.53-8.65,7.61-9.8,13.68-.69,3.63-1.52,10.38,2.64,17.98"/>
  <path class="cls-1" d="M271.43,219.94c-.35.55-.21,1.17-.21,1.76,0,16.71,0,33.41,0,50.12v9.45"/>
  <path class="cls-1" d="M387.94,237.53v27.04"/>
  <path class="cls-1" d="M269.01,221.48h-23.74"/>
  <path class="cls-1" d="M120.19,219.72h8.66c-.59,3.96-.18,7.91-.09,11.87"/>
  <path class="cls-1" d="M286.38,220.16v15.39"/>
  <path class="cls-1" d="M288.14,263.47h-18.03"/>
  <path class="cls-1" d="M288.71,264.12c-.49,4.39-.31,9.68-.26,14.07,0,.68-.11.55.41,2.4"/>
  <path class="cls-1" d="M121.73,253.57c.56,2.21,2.12,3.85,3.25,5.75,1.49,2.52,3.18,4.92,4.67,7.44"/>
  <path class="cls-1" d="M129.2,232.91c-2.03,4.19-5.14,7.73-7.27,11.86-.19.36-.25.75-.43,1.11"/>
  <path class="cls-1" d="M400.47,238.63c-.62,1.05-1.09.61-1.76.64-3.51.18-7.03.02-10.55.02"/>
  <path class="cls-1" d="M271.65,235.33c4.24.4,8.5.13,12.75.23.81.02,1.06.02,2.01.03"/>
  <path class="cls-1" d="M128.76,271.16c0,3.37,0,6.74,0,10.34-6.59-.02-12.97-.01-19.34.22"/>
  <path class="cls-1" d="M145.91,283.25c-3.52.65-7.03-.11-10.55-.09-1.17,0-.75.08-6.34.04"/>
  <path class="cls-1" d="M263.74,279.51h-8.79"/>
  <path class="cls-1" d="M288.58,217.74c-.28,6.01-.21,12.02-.22,18.03"/>
  <path class="cls-1" d="M165.69,279.07c-2.04.35-4.09.45-6.16.44"/>
  <path class="cls-1" d="M292.75,235.55c-1.97.12-2.25.13-4.4.17"/>
  <path class="cls-1" d="M175.37,279.51c-2.2.18-4.4-.42-6.59,0"/>
  <path class="cls-1" d="M417.84,227.86c-7.3,1.14-12.62,4.98-16.31,11.41-2.96,5.14-3.44,10.62-2.06,16.05,2.39,9.41,8.97,15.04,18.39,16.38,9.47,1.35,19.89-2,24.6-11.53,2.25-4.56,2.77-9.32,1.55-14.29-2.04-8.33-7.42-13.59-15.18-16.7-3.47-1.39-7.11-1.43-10.77-1.32"/>
  <path class="cls-1" d="M418.05,240.61c-3.44.95-6.34,2.77-7.64,6.17-1.63,4.26-.77,8.69,3.47,11.85,3.24,2.42,9.04,2.36,12.08-.23,2.49-2.12,4.31-4.6,4.2-8.12-.17-5.39-4.12-9.32-9.47-9.66-.8-.05-1.61,0-2.42,0"/>
  <path class="cls-1" d="M78.42,240.17c-3.91,1.15-6.62,3.45-7.95,7.46-2.07,6.28,2.79,13.06,9.05,13.26,4.57.15,8.11-1.47,10.29-5.36,3.45-6.16.51-12.5-5.89-14.92-1.72-.65-3.21-.67-5.4-.45"/>
</svg>

<svg width="500" height="500" viewBox="0 0 500 500" fill="none" xmlns="http://www.w3.org/2000/svg">
<path d="M260.44 230.27C262.73 230.12 264.78 230.59 266.85 231.74C268.84 232.85 269.69 234.23 269.68 236.43C269.65 246.25 269.6 256.07 269.71 265.89C269.74 268.45 268.75 270.29 266.84 271.27C265.23 272.09 263.61 272.34 260.26 272.47" fill="#FFDA00" fill-opacity="0.7"/>
<path d="M260.44 230.27C262.73 230.12 264.78 230.59 266.85 231.74C268.84 232.85 269.69 234.23 269.68 236.43C269.65 246.25 269.6 256.07 269.71 265.89C269.74 268.45 268.75 270.29 266.84 271.27C265.23 272.09 263.61 272.34 260.26 272.47" stroke="#2071B5" stroke-width="3.2" stroke-linecap="round" stroke-linejoin="round"/>
<rect x="133" y="220" width="9" height="62" fill="#FFDA00" fill-opacity="0.7"/>
<path d="M132.06 281.49C134.77 281.69 137.49 281.22 140.2 281.67C140.7 281.75 141.39 281.47 141.3 280.61C141.25 280.1 141.3 279.59 141.3 279.07V219.72H131.63V279.07C131.63 283.25 131.62 283.03 127.46 283.3C122.1 283.65 116.76 282.88 111.41 283.43C109.74 283.6 108.11 283.04 107.04 281.68C106.03 280.39 104.8 280.13 103.27 280.14C95.6501 280.19 88.0201 280.37 80.4101 280.11C67.5201 279.68 57.9901 273.78 52.5001 261.91C48.9601 254.25 49.3501 246.3 52.6301 238.9C55.7901 231.79 61.4701 226.59 68.7601 223.46C72.4701 221.86 76.3601 221.15 80.4001 220.74C86.8601 220.07 93.3101 220.44 99.7501 220.45C102.47 220.45 104.71 219.7 106.52 217.91C107.78 216.66 109.14 216.41 110.74 216.41C123.2 216.41 135.65 216.41 148.11 216.41C193.61 216.41 239.12 216.45 284.62 216.36C289.98 216.35 290.73 218.41 292.1 222.13C293.12 224.91 293.23 227.87 293.1 230.7C292.91 234.69 293.58 238.6 293.47 242.58C293.28 249.54 293.42 256.5 293.42 263.46" stroke="#2071B5" stroke-width="3.2" stroke-linecap="round" stroke-linejoin="round"/>
<path d="M287.48 217.96C232.38 217.96 177.27 217.95 122.17 217.98C117.78 217.98 113.37 217.68 108.98 218.16C108.33 218.23 107.63 218.28 107 217.95" stroke="#2071B5" stroke-width="3.2" stroke-linecap="round" stroke-linejoin="round"/>
<path d="M398.27 263.91C399.39 267.54 402.28 269.62 405.08 271.84C410.86 276.42 417.61 277.67 424.65 277.03C434.75 276.12 444.82 270 448.62 258.64C451.8 249.12 449.33 240.81 443.11 233.37C438.75 228.16 432.91 224.92 426.4 224.06C417.05 222.82 409.29 225.65 401.58 232.26C400.95 232.8 400.36 233.11 399.35 234.65C398.88 235.37 398.71 236.17 398.15 237.09H385.53C355.63 237.09 325.74 237.09 295.84 237.09C294 237.09 292.19 237.34 290.34 237.32C289.45 237.32 290.34 237.32 288.36 237.32" stroke="#2071B5" stroke-width="3.2" stroke-linecap="round" stroke-linejoin="round"/>
<path d="M288.14 219.72H148.33" stroke="#2071B5" stroke-width="3.2" stroke-linecap="round" stroke-linejoin="round"/>
<path d="M291.36 273.98C291.35 275.93 291.64 279.34 289.36 281.27C288.9 281.66 287.79 281.71 287.26 281.71C240.36 281.71 193.47 281.71 146.57 281.71" stroke="#2071B5" stroke-width="3.2" stroke-linecap="round" stroke-linejoin="round"/>
<path d="M79.9601 236.43C76.1501 236.76 72.8701 238.06 69.7901 240.53C64.4101 244.84 63.8401 254.09 67.6601 259.29C70.8801 263.68 75.2501 266.32 80.6301 266.68C84.3401 266.93 87.8501 265.68 90.9601 263.47C99.3701 257.51 99.9001 246.18 94.2001 239.1C91.3501 235.56 87.4101 233.2 82.8201 232.74C75.8001 232.04 68.6601 235.89 65.5501 240.39C62.2501 245.16 61.3001 250.04 61.9401 255.76" stroke="#2071B5" stroke-width="3.2" stroke-linecap="round" stroke-linejoin="round"/>
<path d="M398.2 263.41C362.3 263.41 329.53 263.46 293.63 263.48C293.27 263.48 293 263.84 292.75 264.12C293.58 265.67 293.29 267.34 293.16 268.95C292.98 271.22 292.94 273.49 292.99 275.77C293.03 277.6 292.41 279.23 291.64 280.82C290.63 282.91 288.6 283.67 286.6 283.62C280.37 283.44 274.14 283.53 267.91 283.4C255.45 283.14 242.99 283.21 230.54 283.33C224.67 283.39 218.81 282.91 212.95 283.27C205.91 283.7 198.88 283.17 191.85 283.22C179.39 283.32 166.94 283.24 154.48 283.25C152.28 283.25 150.08 283.23 147.89 283.25C146.83 283.25 146.27 283.47 146.25 281.71C146.08 264.12 146.1 246.54 146.25 228.95C146.28 224.94 146.55 220.87 145.91 216.86" stroke="#2071B5" stroke-width="3.2" stroke-linecap="round" stroke-linejoin="round"/>
<path d="M270.77 228.73H148.11" stroke="#2071B5" stroke-width="3.2" stroke-linecap="round" stroke-linejoin="round"/>
<path d="M270.77 273.58H148.33" stroke="#2071B5" stroke-width="3.2" stroke-linecap="round" stroke-linejoin="round"/>
<path d="M387.72 239.29H293.85" stroke="#2071B5" stroke-width="3.2" stroke-linecap="round" stroke-linejoin="round"/>
<path d="M407.5 241.26C403.19 245.81 402.93 254.06 407.29 259.28C411.74 264.6 417.82 266.24 424.18 265.07C431.08 263.8 435.45 259.11 436.97 252.04C437.83 248.04 436.43 244.53 434.49 241.29C429.35 232.72 418.11 230.51 410.13 236.43" stroke="#2071B5" stroke-width="3.2" stroke-linecap="round" stroke-linejoin="round"/>
<path d="M398.27 265.01C394.82 265.21 391.37 264.98 387.94 264.98C384.14 264.98 380.32 264.84 376.51 265C374.31 265.09 372.11 264.99 369.92 265.02C363.69 265.1 357.46 265.15 351.24 265.13C346.85 265.12 342.43 264.94 338.05 265.12C333.35 265.31 328.67 265.03 323.97 265.15C319.22 265.28 314.45 265.01 309.68 265.02C304.26 265.04 298.84 265.01 293.41 265.02" stroke="#2071B5" stroke-width="3.2" stroke-linecap="round" stroke-linejoin="round"/>
<path d="M422.45 262.37C426.39 261.81 429.36 259.69 431.44 256.42C434.67 251.33 433.41 244.48 428.11 240.68C421.54 235.97 410.97 237.6 407.56 246.78C406.13 250.62 406.93 254.36 409.7 257.53" stroke="#2071B5" stroke-width="3.2" stroke-linecap="round" stroke-linejoin="round"/>
<path d="M119.31 228.73C106.71 228.73 94.1 228.77 81.5 228.7C78.37 228.68 75.38 229.11 72.49 230.27" stroke="#2071B5" stroke-width="3.2" stroke-linecap="round" stroke-linejoin="round"/>
<path d="M146.57 219.72H148.11V281.49" stroke="#2071B5" stroke-width="3.2" stroke-linecap="round" stroke-linejoin="round"/>
<path d="M260 229.17V273.14" stroke="#2071B5" stroke-width="3.2" stroke-linecap="round" stroke-linejoin="round"/>
<path d="M119.75 218.4C119.75 222.65 119.75 226.9 119.75 231.15C119.75 243.61 119.74 256.06 119.75 268.52C119.75 272.77 119.52 277.03 119.96 281.27" stroke="#2071B5" stroke-width="3.2" stroke-linecap="round" stroke-linejoin="round"/>
<path d="M265.94 231.59C265.47 232.28 265.74 233.06 265.74 233.79C265.72 244.27 265.73 254.75 265.72 265.23C265.72 267.21 265.81 269.2 265.5 271.17" stroke="#2071B5" stroke-width="3.2" stroke-linecap="round" stroke-linejoin="round"/>
<path d="M86.1701 262.42C91.4801 260.13 94.2701 254.99 94.3101 249C94.3601 241.45 87.0701 235.29 79.5901 236.46" stroke="#2071B5" stroke-width="3.2" stroke-linecap="round" stroke-linejoin="round"/>
<path d="M61.9399 255.77C62.8999 262.06 66.5199 266.35 72.0599 269.17C75.4499 270.89 79.1099 271.07 82.8299 270.95C85.2499 270.88 87.6699 270.94 90.0799 270.94C99.8299 270.94 109.57 270.94 119.32 270.94" stroke="#2071B5" stroke-width="3.2" stroke-linecap="round" stroke-linejoin="round"/>
<path d="M286.4 235.48C286.42 236.49 286.39 238.46 286.39 239.28C286.38 253.28 286.39 267.27 286.39 281.27" stroke="#2071B5" stroke-width="3.2" stroke-linecap="round" stroke-linejoin="round"/>
<path d="M288.36 237.31C288.36 245.44 288.35 253.58 288.38 261.71C288.38 262.45 288 263.31 288.8 263.91" stroke="#2071B5" stroke-width="3.2" stroke-linecap="round" stroke-linejoin="round"/>
<path d="M68.7501 232.2C63.5901 235.73 60.1001 239.81 58.9501 245.88C58.2601 249.51 57.4301 256.26 61.5901 263.86" stroke="#2071B5" stroke-width="3.2" stroke-linecap="round" stroke-linejoin="round"/>
<path d="M271.43 219.94C271.08 220.49 271.22 221.11 271.22 221.7C271.22 238.41 271.22 255.11 271.22 271.82V281.27" stroke="#2071B5" stroke-width="3.2" stroke-linecap="round" stroke-linejoin="round"/>
<path d="M387.94 237.53V264.57" stroke="#2071B5" stroke-width="3.2" stroke-linecap="round" stroke-linejoin="round"/>
<path d="M269.01 221.48H245.27" stroke="#2071B5" stroke-width="3.2" stroke-linecap="round" stroke-linejoin="round"/>
<path d="M120.19 219.72H128.85C128.26 223.68 128.67 227.63 128.76 231.59" stroke="#2071B5" stroke-width="3.2" stroke-linecap="round" stroke-linejoin="round"/>
<path d="M286.38 220.16V235.55" stroke="#2071B5" stroke-width="3.2" stroke-linecap="round" stroke-linejoin="round"/>
<path d="M288.14 263.47H270.11" stroke="#2071B5" stroke-width="3.2" stroke-linecap="round" stroke-linejoin="round"/>
<path d="M288.71 264.12C288.22 268.51 288.4 273.8 288.45 278.19C288.45 278.87 288.34 278.74 288.86 280.59" stroke="#2071B5" stroke-width="3.2" stroke-linecap="round" stroke-linejoin="round"/>
<path d="M121.73 253.57C122.29 255.78 123.85 257.42 124.98 259.32C126.47 261.84 128.16 264.24 129.65 266.76" stroke="#2071B5" stroke-width="3.2" stroke-linecap="round" stroke-linejoin="round"/>
<path d="M129.2 232.91C127.17 237.1 124.06 240.64 121.93 244.77C121.74 245.13 121.68 245.52 121.5 245.88" stroke="#2071B5" stroke-width="3.2" stroke-linecap="round" stroke-linejoin="round"/>
<path d="M400.47 238.63C399.85 239.68 399.38 239.24 398.71 239.27C395.2 239.45 391.68 239.29 388.16 239.29" stroke="#2071B5" stroke-width="3.2" stroke-linecap="round" stroke-linejoin="round"/>
<path d="M271.65 235.33C275.89 235.73 280.15 235.46 284.4 235.56C285.21 235.58 285.46 235.58 286.41 235.59" stroke="#2071B5" stroke-width="3.2" stroke-linecap="round" stroke-linejoin="round"/>
<path d="M128.76 271.16C128.76 274.53 128.76 277.9 128.76 281.5C122.17 281.48 115.79 281.49 109.42 281.72" stroke="#2071B5" stroke-width="3.2" stroke-linecap="round" stroke-linejoin="round"/>
<path d="M145.91 283.25C142.39 283.9 138.88 283.14 135.36 283.16C134.19 283.16 134.61 283.24 129.02 283.2" stroke="#2071B5" stroke-width="3.2" stroke-linecap="round" stroke-linejoin="round"/>
<path d="M263.74 279.51H254.95" stroke="#2071B5" stroke-width="3.2" stroke-linecap="round" stroke-linejoin="round"/>
<path d="M288.58 217.74C288.3 223.75 288.37 229.76 288.36 235.77" stroke="#2071B5" stroke-width="3.2" stroke-linecap="round" stroke-linejoin="round"/>
<path d="M165.69 279.07C163.65 279.42 161.6 279.52 159.53 279.51" stroke="#2071B5" stroke-width="3.2" stroke-linecap="round" stroke-linejoin="round"/>
<path d="M292.75 235.55C290.78 235.67 290.5 235.68 288.35 235.72" stroke="#2071B5" stroke-width="3.2" stroke-linecap="round" stroke-linejoin="round"/>
<path d="M175.37 279.51C173.17 279.69 170.97 279.09 168.78 279.51" stroke="#2071B5" stroke-width="3.2" stroke-linecap="round" stroke-linejoin="round"/>
<path d="M417.84 227.86C410.54 229 405.22 232.84 401.53 239.27C398.57 244.41 398.09 249.89 399.47 255.32C401.86 264.73 408.44 270.36 417.86 271.7C427.33 273.05 437.75 269.7 442.46 260.17C444.71 255.61 445.23 250.85 444.01 245.88C441.97 237.55 436.59 232.29 428.83 229.18C425.36 227.79 421.72 227.75 418.06 227.86" stroke="#2071B5" stroke-width="3.2" stroke-linecap="round" stroke-linejoin="round"/>
<path d="M418.05 240.61C414.61 241.56 411.71 243.38 410.41 246.78C408.78 251.04 409.64 255.47 413.88 258.63C417.12 261.05 422.92 260.99 425.96 258.4C428.45 256.28 430.27 253.8 430.16 250.28C429.99 244.89 426.04 240.96 420.69 240.62C419.89 240.57 419.08 240.62 418.27 240.62" fill="#FFDA00" fill-opacity="0.7"/>
<path d="M418.05 240.61C414.61 241.56 411.71 243.38 410.41 246.78C408.78 251.04 409.64 255.47 413.88 258.63C417.12 261.05 422.92 260.99 425.96 258.4C428.45 256.28 430.27 253.8 430.16 250.28C429.99 244.89 426.04 240.96 420.69 240.62C419.89 240.57 419.08 240.62 418.27 240.62" stroke="#2071B5" stroke-width="3.2" stroke-linecap="round" stroke-linejoin="round"/>
<path d="M78.4201 240.17C74.5101 241.32 71.8001 243.62 70.4701 247.63C68.4001 253.91 73.2601 260.69 79.5201 260.89C84.0901 261.04 87.6301 259.42 89.8101 255.53C93.2601 249.37 90.3201 243.03 83.9201 240.61C82.2001 239.96 80.7101 239.94 78.5201 240.16" fill="#FFDA00" fill-opacity="0.7"/>
<path d="M78.4201 240.17C74.5101 241.32 71.8001 243.62 70.4701 247.63C68.4001 253.91 73.2601 260.69 79.5201 260.89C84.0901 261.04 87.6301 259.42 89.8101 255.53C93.2601 249.37 90.3201 243.03 83.9201 240.61C82.2001 239.96 80.7101 239.94 78.5201 240.16" stroke="#2071B5" stroke-width="3.2" stroke-linecap="round" stroke-linejoin="round"/>
</svg>
